X: 5
T: Przypuść, Panie, w uszy swoje
C: Mikołaj Gomółka
%%abc-version 2.0
%%abcx-abcm2ps-target-version 5.9.1 (29 Sep 2008)
%%abc-creator hum2abc beta
%%abcx-conversion-date 2021/10/04 07:59:09
%%abc-edited-by Anna Matuszewska
%%abcx-initial-encoding-date 2020-02-04
%%humdrum-veritas 1738775355
%%humdrum-veritas-data 1384923930
%%linebreak <none>
%%barnumbers 0
L: 1/4
M: C|
N: Derived from pl-wn--sd-xvi-qu-273--005_gomolka-mikolaj--przypusc-panie-w-uszy-swoje.krn
%%staves [1 2 3 4]
V: 1 clef=treble
V: 2
V: 3 clef=alto
V: 4 clef=tenor
K: F
[V:1] d4d4 [I:setbarnb 3][|] 
[V:2] _B4_B4 [|] 
[V:3] G4G4 [|] 
[V:4] G,4G,4 [|] 
[V:1] _e4d2_B4 [|] 
[V:2] c2>B2A2G4 [|] 
[V:3] G4^F2D4 [|] 
[V:4] C4D2G,4 [|] 
[V:1] B2c4 [|] 
[V:2] G2GA2G [|] 
[V:3] D2EF2E [|] 
[V:4] G,2C,4 [|] 
[V:1] c2f4e2 [|] 
[V:2] A2c4c2 [|] 
[V:3] F2A4G2 [|] 
[V:4] F,2F4C2 [|] 
[V:1] d2_B2>B2B2 [|] 
[V:2] A2G2>G2G2 [|] 
[V:3] F2D2>D2D2 [|] 
[V:4] D2G,2>G,2G,2 [|] 
[V:1] c2>B2A2f2 [|] 
[V:2] G4C2D2 [|] 
[V:3] E4F2A2 [|] 
[V:4] C,4F,2D,2 [|] 
[V:1] e2d2c2d2 [|] 
[V:2] E2F2E2D2 [|] 
[V:3] A2A2A2A2 [|] 
[V:4] ^C,2D,2A,2D,2 [|] 
[V:1] B4B4 [|] 
[V:2] D4D4 [|] 
[V:3] G6^FE [|] 
[V:4] G,4G,4 [|] 
[V:1] A2_B2c2c4 [|] 
[V:2] D2D2G2A4 [|] 
[V:3] ^F2G2E2F4 [|] 
[V:4] D,2G,2C,2F,4 [|] 
[V:1] d2^c4 [|] 
[V:2] A2A4 [|] 
[V:3] F2E4 [|] 
[V:4] D,2A,4 [|] 
[V:1] d6B2 [|] 
[V:2] A4G3F [|] 
[V:3] D4D4 [|] 
[V:4] ^F,4G,4 [|] 
[V:1] !fermata!A8 [|] 
[V:2] !fermata!E8 [|] 
[V:3] !fermata!^C8 [|] 
[V:4] !fermata!A,8 [|] 


